X: 1
T: Gan Ainm
M: 2/4
L: 1/8
R: polka
K: Dmaj
|:d>e|fd cd|Bd Ad|g2 fg|ef g>e|
fd cd|Bd Ad|g2 fe|d2:|
|:g>f|eA Ag/2f/2|eA A2|ge fd|cd eg/2f/2|
eA Ag/2f/2|eA A2|af af|d2:|
